Suru++-Ubuntu/apps/scalable/driconf-icon.svg

<svg xmlns="http://www.w3.org/2000/svg" xmlns:xlink="http://www.w3.org/1999/xlink" width="256" height="256" version="1.1" viewBox="0 0 256 256">
 <defs>
  <linearGradient id="linearGradient1108" x1="296" x2="296" y1="-212" y2="236" gradientUnits="userSpaceOnUse" xlink:href="#linearGradient1013"/>
  <linearGradient id="linearGradient1013">
   <stop style="stop-color:#ffffff" offset="0"/>
   <stop offset=".125" style="stop-color:#ffffff;stop-opacity:0.09803922"/>
   <stop offset=".925" style="stop-color:#000000;stop-opacity:0.09803922"/>
   <stop style="stop-color:#000000;stop-opacity:0.49803922" offset="1"/>
  </linearGradient>
  <clipPath id="clipPath1082-3-361" clipPathUnits="userSpaceOnUse">
   <path style="fill:#8c59d9" d="M 361.9375,-212 C 507.2348,-212 528,-191.28677 528,-46.125 V 70.125 C 528,215.28618 507.2348,236 361.9375,236 H 214.0625 C 68.7652,236 48,215.28618 48,70.125 V -46.125 C 48,-191.28677 68.7652,-212 214.0625,-212 Z"/>
  </clipPath>
  <linearGradient id="linearGradient1044" x1="88" x2="256" y1="28" y2="284" gradientTransform="matrix(1.0193681,0,0,1.0193681,-27.00384,-32.512319)" gradientUnits="userSpaceOnUse" xlink:href="#linearGradient4245"/>
  <linearGradient id="linearGradient4245">
   <stop style="stop-color:#e8e8e8" offset="0"/>
   <stop style="stop-color:#f5f5f5" offset="1"/>
  </linearGradient>
  <filter id="filter4569" width="1.023" height="1.025" x="-.01" y="-.01" style="color-interpolation-filters:sRGB">
   <feGaussianBlur stdDeviation="1.16"/>
  </filter>
  <filter id="filter939" width="1.046" height="1.05" x="-.02" y="-.03" style="color-interpolation-filters:sRGB">
   <feGaussianBlur stdDeviation="2.32"/>
  </filter>
  <filter id="filter1589" width="1.072" height="1.142" x="-.04" y="-.07" style="color-interpolation-filters:sRGB">
   <feGaussianBlur stdDeviation="2.414"/>
  </filter>
 </defs>
 <path d="m 162.53675,5.5680001 c 72.64865,0 83.03125,10.3566149 83.03125,82.9375049 v 58.125005 c 0,72.58059 -10.3826,82.9375 -83.03125,82.9375 H 88.599254 C 15.9506,229.56801 5.568,219.2111 5.568,146.63051 V 88.505505 c 0,-72.58089 10.3826,-82.9375049 83.031254,-82.9375049 z" transform="matrix(1.019368,0,0,1.019368,-7.2181772e-8,8.3098661)" style="opacity:0.2;filter:url(#filter939)"/>
 <path style="opacity:0.1;fill:none;stroke:#000000;stroke-width:4.07747173;stroke-linecap:round;stroke-linejoin:round" d="m 165.68477,11.946967 c 74.05571,0 84.6394,10.557203 84.6394,84.543835 v 59.250778 c 0,73.98633 -10.58369,84.54383 -84.6394,84.54383 H 90.315249 c -74.055717,0 -84.6394076,-10.5575 -84.6394076,-84.54383 V 96.490802 c 0,-73.986632 10.5836906,-84.543835 84.6394076,-84.543835 z"/>
 <path style="opacity:0.1;filter:url(#filter4569)" d="m 162.53675,3.5680001 c 72.64865,0 83.03125,10.3566149 83.03125,82.9375049 v 58.125005 c 0,72.58059 -10.3826,82.9375 -83.03125,82.9375 H 88.599254 C 15.9506,227.56801 5.568,217.2111 5.568,144.63051 V 86.505505 c 0,-72.58089 10.3826,-82.9375049 83.031254,-82.9375049 z" transform="matrix(1.019368,0,0,1.019368,-7.2181772e-8,8.3098661)"/>
 <path d="m 165.62486,12.339827 c 74.05571,0 84.6394,10.557203 84.6394,84.543835 v 59.250778 c 0,73.98633 -10.58369,84.54383 -84.6394,84.54383 H 90.255339 c -74.055712,0 -84.6394028,-10.5575 -84.6394028,-84.54383 V 96.883662 c 0,-73.986632 10.5836908,-84.543835 84.6394028,-84.543835 z" style="fill:url(#linearGradient1044)"/>
 <path style="opacity:0.4;fill:none;stroke:url(#linearGradient1108);stroke-width:8;stroke-linecap:round;stroke-linejoin:round" d="M 361.9375,-212 C 507.2348,-212 528,-191.28677 528,-46.125 V 70.125 C 528,215.28618 507.2348,236 361.9375,236 H 214.0625 C 68.7652,236 48,215.28618 48,70.125 V -46.125 C 48,-191.28677 68.7652,-212 214.0625,-212 Z" clip-path="url(#clipPath1082-3-361)" transform="matrix(0.50968403,0,0,0.50968403,-18.788999,120)"/>
 <path d="M 128.00001,11.975707 V 240.31415 h 37.68475 c 74.05571,0 84.6394,-10.5575 84.6394,-84.54383 V 96.519542 c 0,-73.986631 -10.58369,-84.543835 -84.6394,-84.543835 z" style="clip-rule:evenodd;opacity:0.1;fill:#2d0000;fill-rule:evenodd;image-rendering:optimizeQuality;shape-rendering:geometricPrecision;text-rendering:geometricPrecision"/>
 <path d="m 90.315243,240.31415 c -74.055712,0 -84.6394033,-10.5572 -84.6394033,-84.54383 V 126.14495 H 250.32416 v 29.62537 c 0,73.98663 -10.58369,84.54383 -84.63939,84.54383 z" style="clip-rule:evenodd;opacity:0.1;fill:#2d0000;fill-rule:evenodd;image-rendering:optimizeQuality;shape-rendering:geometricPrecision;text-rendering:geometricPrecision"/>
 <g transform="translate(-2.0599063,26.208725)">
  <g transform="translate(-7.8378334,7.6987379)">
   <g style="opacity:0.3;filter:url(#filter1589)" transform="matrix(1.1655883,0,0,1.1655883,-13.688643,-24.307299)">
    <text x="41.94" y="139.84" transform="scale(0.99173675,1.0083321)" xml:space="preserve" style="font-weight:bold;font-size:110.14392853px;line-height:1.25;font-family:'Nimbus Sans L';letter-spacing:0px;word-spacing:0px">
     <tspan style="font-size:110.14392853px" x="41.94" y="139.84">D</tspan>
    </text>
    <text x="115.18" y="123.31" transform="scale(1.0148054,0.9854106)" xml:space="preserve" style="font-size:45.37592697px;line-height:1.25;letter-spacing:0px;word-spacing:0px">
     <tspan style="font-weight:bold;font-size:84.70173645px;font-family:'Nimbus Sans L'" x="115.18" y="123.31">R</tspan>
    </text>
    <text x="139.27" y="190.24" transform="rotate(-16.532737)" xml:space="preserve" style="font-size:58.64640045px;line-height:1.25;letter-spacing:0px;word-spacing:0px">
     <tspan style="font-weight:bold;font-size:109.47328186px;font-family:'Nimbus Sans L'" x="139.27" y="190.24">I</tspan>
    </text>
   </g>
   <g transform="matrix(1.1655883,0,0,1.1655883,-13.688643,-24.307299)">
    <text style="font-weight:bold;font-size:110.14392853px;line-height:1.25;font-family:'Nimbus Sans L';letter-spacing:0px;word-spacing:0px;fill:#cd3436" x="41.94" y="139.84" transform="scale(0.99173675,1.0083321)" xml:space="preserve">
     <tspan x="41.94" y="139.84" style="font-size:110.14392853px;fill:#cd3436">D</tspan>
    </text>
    <text style="font-size:45.37592697px;line-height:1.25;letter-spacing:0px;word-spacing:0px;fill:#6ced12" x="115.18" y="123.31" transform="scale(1.0148054,0.9854106)" xml:space="preserve">
     <tspan x="115.18" y="123.31" style="font-weight:bold;font-size:84.70173645px;font-family:'Nimbus Sans L';fill:#6ced12">R</tspan>
    </text>
    <text style="font-size:58.64640045px;line-height:1.25;letter-spacing:0px;word-spacing:0px;fill:#4aadea" x="139.27" y="190.24" transform="rotate(-16.532737)" xml:space="preserve">
     <tspan x="139.27" y="190.24" style="font-weight:bold;font-size:109.47328186px;font-family:'Nimbus Sans L';fill:#4aadea">I</tspan>
    </text>
   </g>
  </g>
 </g>
</svg>

<svg width="256" height="256" version="1.1" viewBox="0 0 256 256" xmlns="http://www.w3.org/2000/svg" xmlns:xlink="http://www.w3.org/1999/xlink">
 <defs>
  <linearGradient id="linearGradient1108" x1="296" x2="296" y1="-212" y2="236" gradientUnits="userSpaceOnUse">
   <stop style="stop-color:#ffffff" offset="0"/>
   <stop style="stop-color:#ffffff;stop-opacity:.09803922" offset=".125"/>
   <stop style="stop-color:#000000;stop-opacity:.09803922" offset=".925"/>
   <stop style="stop-color:#000000;stop-opacity:.49803922" offset="1"/>
  </linearGradient>
  <clipPath id="clipPath1082-3-361">
   <path d="M 361.9375,-212 C 507.2348,-212 528,-191.28677 528,-46.125 V 70.125 C 528,215.28618 507.2348,236 361.9375,236 H 214.0625 C 68.7652,236 48,215.28618 48,70.125 V -46.125 C 48,-191.28677 68.7652,-212 214.0625,-212 Z" style="fill:#8c59d9"/>
  </clipPath>
  <linearGradient id="linearGradient1044" x1="88" x2="256" y1="28" y2="284" gradientTransform="matrix(1.0193681,0,0,1.0193681,-27.00384,-32.512319)" gradientUnits="userSpaceOnUse">
   <stop style="stop-color:#e8e8e8" offset="0"/>
   <stop style="stop-color:#f5f5f5" offset="1"/>
  </linearGradient>
  <filter id="filter4569" x="-.01" y="-.01" width="1.023" height="1.025" style="color-interpolation-filters:sRGB">
   <feGaussianBlur stdDeviation="1.16"/>
  </filter>
  <filter id="filter939" x="-.02" y="-.03" width="1.046" height="1.05" style="color-interpolation-filters:sRGB">
   <feGaussianBlur stdDeviation="2.32"/>
  </filter>
  <filter id="filter1589" x="-.04" y="-.07" width="1.072" height="1.142" style="color-interpolation-filters:sRGB">
   <feGaussianBlur stdDeviation="2.414"/>
  </filter>
 </defs>
 <path transform="matrix(1.019368,0,0,1.019368,-7.2181772e-8,8.3098661)" d="m162.53675 5.5680001c72.64865 0 83.03125 10.356615 83.03125 82.937505v58.125005c0 72.58059-10.3826 82.9375-83.03125 82.9375h-73.937496c-72.648654 0-83.031254-10.35691-83.031254-82.9375v-58.125005c0-72.58089 10.3826-82.937505 83.031254-82.937505z" style="filter:url(#filter939);opacity:.2"/>
 <path d="m165.68477 11.946967c74.05571 0 84.6394 10.557203 84.6394 84.543835v59.250778c0 73.98633-10.58369 84.54383-84.6394 84.54383h-75.369521c-74.055717 0-84.639408-10.5575-84.639408-84.54383v-59.250778c0-73.986632 10.583691-84.543835 84.639408-84.543835z" style="fill:none;opacity:.1;stroke-linecap:round;stroke-linejoin:round;stroke-width:4.0774717;stroke:#000000"/>
 <path transform="matrix(1.019368,0,0,1.019368,-7.2181772e-8,8.3098661)" d="m162.53675 3.5680001c72.64865 0 83.03125 10.356615 83.03125 82.937505v58.125005c0 72.58059-10.3826 82.9375-83.03125 82.9375h-73.937496c-72.648654 0-83.031254-10.35691-83.031254-82.9375v-58.125005c0-72.58089 10.3826-82.937505 83.031254-82.937505z" style="filter:url(#filter4569);opacity:.1"/>
 <path d="m165.62486 12.339827c74.05571 0 84.6394 10.557203 84.6394 84.543835v59.250778c0 73.98633-10.58369 84.54383-84.6394 84.54383h-75.369521c-74.055712 0-84.639403-10.5575-84.639403-84.54383v-59.250778c0-73.986632 10.583691-84.543835 84.639403-84.543835z" style="fill:url(#linearGradient1044)"/>
 <path transform="matrix(.50968403 0 0 .50968403 -18.788999 120)" d="M 361.9375,-212 C 507.2348,-212 528,-191.28677 528,-46.125 V 70.125 C 528,215.28618 507.2348,236 361.9375,236 H 214.0625 C 68.7652,236 48,215.28618 48,70.125 V -46.125 C 48,-191.28677 68.7652,-212 214.0625,-212 Z" clip-path="url(#clipPath1082-3-361)" style="fill:none;opacity:.4;stroke-linecap:round;stroke-linejoin:round;stroke-width:8;stroke:url(#linearGradient1108)"/>
 <path d="m128.00001 11.975707v228.33844h37.68475c74.05571 0 84.6394-10.5575 84.6394-84.54383v-59.250778c0-73.986631-10.58369-84.543835-84.6394-84.543835z" style="clip-rule:evenodd;fill-rule:evenodd;fill:#2d0000;image-rendering:optimizeQuality;opacity:.1;shape-rendering:geometricPrecision"/>
 <path d="m90.315243 240.31415c-74.055712 0-84.639403-10.5572-84.639403-84.54383v-29.62537h244.64832v29.62537c0 73.98663-10.58369 84.54383-84.63939 84.54383z" style="clip-rule:evenodd;fill-rule:evenodd;fill:#2d0000;image-rendering:optimizeQuality;opacity:.1;shape-rendering:geometricPrecision"/>
 <g transform="translate(-2.0599063,26.208725)">
  <g transform="translate(-7.8378334,7.6987379)">
   <g transform="matrix(1.1655883,0,0,1.1655883,-13.688643,-24.307299)" style="filter:url(#filter1589);opacity:.3">
    <text transform="scale(.99173675 1.0083321)" x="41.94" y="139.84" style="font-family:'Nimbus Sans L';font-size:110.14393px;font-weight:bold;letter-spacing:0px;line-height:1.25;word-spacing:0px" xml:space="preserve">
     <tspan x="41.94" y="139.84" style="font-size:110.14393px">D</tspan>
    </text>
    <text transform="scale(1.0148054 .9854106)" x="115.18" y="123.31" style="font-size:45.375927px;letter-spacing:0px;line-height:1.25;word-spacing:0px" xml:space="preserve">
     <tspan x="115.18" y="123.31" style="font-family:'Nimbus Sans L';font-size:84.701736px;font-weight:bold">R</tspan>
    </text>
    <text transform="rotate(-16.532737)" x="139.27" y="190.24" style="font-size:58.6464px;letter-spacing:0px;line-height:1.25;word-spacing:0px" xml:space="preserve">
     <tspan x="139.27" y="190.24" style="font-family:'Nimbus Sans L';font-size:109.47328px;font-weight:bold">I</tspan>
    </text>
   </g>
   <g transform="matrix(1.1655883,0,0,1.1655883,-13.688643,-24.307299)">
    <text transform="scale(.99173675 1.0083321)" x="41.94" y="139.84" style="fill:#cd3436;font-family:'Nimbus Sans L';font-size:110.14393px;font-weight:bold;letter-spacing:0px;line-height:1.25;word-spacing:0px" xml:space="preserve">
     <tspan x="41.94" y="139.84" style="fill:#cd3436;font-size:110.14393px">D</tspan>
    </text>
    <text transform="scale(1.0148054 .9854106)" x="115.18" y="123.31" style="fill:#6ced12;font-size:45.375927px;letter-spacing:0px;line-height:1.25;word-spacing:0px" xml:space="preserve">
     <tspan x="115.18" y="123.31" style="fill:#6ced12;font-family:'Nimbus Sans L';font-size:84.701736px;font-weight:bold">R</tspan>
    </text>
    <text transform="rotate(-16.532737)" x="139.27" y="190.24" style="fill:#4aadea;font-size:58.6464px;letter-spacing:0px;line-height:1.25;word-spacing:0px" xml:space="preserve">
     <tspan x="139.27" y="190.24" style="fill:#4aadea;font-family:'Nimbus Sans L';font-size:109.47328px;font-weight:bold">I</tspan>
    </text>
   </g>
  </g>
 </g>
</svg>
